!!!SOCIAL_FUNCTION: songs of affection
!!!PDT:	1929
!!!LING_GROUP: Caddoan
!!!LANG: Non-Tone
!!!REG: Oklahoma
!!!COM: Anon.
!!!OTL: Song of Affection (b)
!!!ODT: <1920//
!!!MPN: Laduda desadu [He does everything as a chief, John Luwak]
!!!MLC: Pawnee, Oklahoma, United States of America
!! Song was recorded either 1919 or 1920.
!!!AGN: monody
!!!AMT: simple triple
!!!RWG: Transcribed pitches, durations, and meters are only approximate.
!! Drum not recorded
**kern
*ICvox
*Imale
*clefF4
*k[b-e-]
*M3/4
*MM138
=1-
8f
8f
8f
8d
8.c
16f
=2
12f
12d
12c
4c
4c
=3
8f
8f
8f
8d
8.c
16f
=4
12f
12d
12c
4c
4c
=5
8B-
8B-
8B-
8G
8.F
16B-
=6
12B-
12G
12F
4F
4F
=7
8c
8c
8c
8c
4B-
=8
8c
8c
8c
8c
8.B-
16B-
=9
12B-
12G
12F
4F
4F
=10
8B-
8B-
8B-
8G
8.F
16B-
=11
12B-
12G
12F
4F
4F
=12
8D
8D
8D
8C
8.BB-
16D
=13
12D
12C
12BB-
4BB-
4BB-
=14
8F
8F
8F
8F
4E-
=15
8F
8F
8F
8F
8.E-
16E-
=16
12E-
12C
12BB-
4BB-
4BB-
=17
8F
8F
8F
8D
8.C
16F
=18
12F
12D
12C
4C
4C
=19
8BB-
8BB-
8BB-
8GG
8.FF
16BB-
=20
12BB-
12GG
12FF
4FF
4FF
=21
8C
8C
8C
8C
4BB-
=22
8C
8C
8C
8C
8.BB-
16BB-
=23
12BB-
12GG
12FF
4FF
4FF
=24
8BB-
8BB-
8BB-
8G
8.FF
16BB-
=25
12BB-
12GG
12FF
4FF
4FF
==
*-
!!!HAO:    In explanation of the next song it was said, "There was once a
!!!HAO: married couple.  One day the wife said to her husband, `I love you
!!!HAO: very much and if you should die I would cry every day.'  This was
!!!HAO: the first time that either had admitted an affection for the other."
!!!HTX: [no free translation]
!!!CNT: Pawnee
!!!TXO: Pawnee
!!!OCY: United States
!!!OCL: Frances Densmore
!!!YOR: Frances Densmore, "Pawnee Music"
!!!YOR: Bulletin 93, page 95, No. 69
!!!PPR: Smithsonian Institution, Bureau of American Ethnology
!!!PPR: Government Printing Office
!!!PDT: 1926
!!!PPP: Washington, DC, United States of America
!!!YEC: Electronic Copyright 2000 David Huron
!!!YER: September 2000
!!!YEN: United States of America
!!!ENC: David Huron
!!!RDT: September 10, 2000
!!!EEV: Release 1.0
!!!AIN: vox
